X:1
T:Title
%%score { 1 | 2 }
L:1/8
M:3/4
K:Bb
V:1 treble nm="Grand Piano"
V:2 bass 
V:1
 z2 z[Q:1/4=100] D D[CE] | [DF]3 [DF] [EG][EF] | [DB]4 [FB]2 | [GB]3 [GB] [FA][EG] |[M:3/8] [DF]3 | %5
 [DF][EG][FG] |[M:3/4] [EG]3 A BB | B4 d2 | [=Ec]3 [EG] [EA][EB] |[M:2/4] c4 |[M:1/4] F2 | %11
[M:3/4] [Fd]>[=Ed] [Fd]3 [_Ec] | [Ec][DB] [DB]2 [FB]2 | [GB]3 [GB] [FA][EG] |[M:2/4] [DF]4 | %15
[M:1/4] [DF]2 |[M:3/4] GB B3 G | [DF][DB] [DB]2 [FB]2 | d3 B c>A |[M:2/4] [DB]4 |[M:1/4] F2 | %21
[M:3/4] c>B A3 F | [Fe]>[Ec] [DB]2 [FB]2 | [GB]3 [FB] [Fe][Fd] | c4 F2 | c>c c3 F | %26
 [FB]c d2 [Fd]2 | [Fc]3 [=EB] [FA][EG] | F4 F2 | [DB]>[EB] [DB]3 [FA] | [FG]B F2 F2 | %31
 [Fd]3 [GB] [Fe][Fd] | c3 c de | f3 d dc | B4 G2 | F3 d c>F |[M:3/8] [DB]3 |] %37
V:2
 z2 z [B,,F,B,] [B,,F,B,][B,,F,] | [B,,B,]3 [B,,B,] [B,,B,][B,,B,] | [B,,F,]4 [D,B,]2 | %3
 [E,B,]3 [E,B,] [E,B,][E,B,] |[M:3/8] [B,,B,]3 | [B,,B,][E,B,][D,=B,] | %6
[M:3/4] [C,C]3 [F,CE][K:treble] [G,B,D][G,B,E] | [G,B,D]4 [G,B,F]2 | [C,B,]3 [C,B,] [C,A,][C,G,] | %9
[M:2/4] [F,A,E]4 |[M:1/4] [F,A,]2 |[M:3/4] [B,,B,]>[B,,G,] [B,,F,]3 [B,,F,] | %12
 [B,,F,][B,,F,] [B,,F,]2 [D,B,]2 | [E,B,]3 [E,B,] [E,B,][E,B,] |[M:2/4] [B,,B,]4 | %15
[M:1/4] [B,,B,]2 |[M:3/4] [E,B,E][E,G,E] [E,G,E]3 [E,B,E] | [B,,B,][B,,F,] [B,,F,]2 [D,B,]2 | %18
 [F,B,F]3 [G,B,D] [E,G,E]>[F,E] |[M:2/4] [B,,F,]4 |[M:1/4] F,2 | %21
[M:3/4] [F,EF]>[F,DF] [F,CF]3 [F,A,] | [B,,B,]>[B,,F,] [B,,F,]2 [D,B,]2 | %23
 [E,B,]3 [D,B,] [C,A,][B,,B,] | [F,A,F]4 F,2 | [F,A,F]>[G,B,=E] [F,A,F]3 [E,A,] | %26
 [D,B,][K:treble][F,A,F] [B,F]2[K:bass] [B,,B,]2 | [C,G,]3 [C,G,] [C,C][C,B,] | [F,A,]4 [F,A,E]2 | %29
 [B,,B,]>[B,,G,] [B,,F,]3 [D,B,] | [E,B,][G,B,E] [B,D]2 [F,B,D]2 | [B,,B,]3 [D,B,] [C,A,][B,,B,] | %32
 [F,A,F]3 [F,A,F] [B,F][B,CF] | [B,DB]3 [B,F][K:bass] [F,B,F][^F,A,E] | [G,B,D]4 [=E,B,_D]2 | %35
 [F,B,D]3 [F,B,F] [F,A,E]>[F,CE] |[M:3/8] [B,,B,]3 |] %37

